X: 269
T: Burn's Farewell   #2
R: air, march
%S: s:2 b:10(6+4)
B: O'Neill's 1850 #269
O: J.Kennedy
Z: 1997 by John Chambers <jc@trillian.mit.edu>
Q: "Moderate"
N: Compacted via repeats and multiple endings [JC]
N: Compacted by using labels and play order [JC]
P: Play A1A2 A1A2 BA2 BA2
M: C
L: 1/8
K: Am
"^A"|: ed  | c2A2 A2GE  | c2e2 d2^cd |1,3 e2e2 d2^cd | e2G2 G2 :|2,4 e2a2 gede  | c2A2 "^fine"A2 :|
"^B"[| e^f | g2a2 g2^fg | a2g2 g2ag  |=f2e2 d2^cd | e2G2 "^->A2"G2 |]
